X: 567
T: Cock and Hen., The
T: coilea.c agus an cear.c, an
R:jig
N:"Playfully." "Collected from 'F. O'Neill."
B:O'Neill's 567
Z:Transcribed by J.B. Walsh, walsh@math.ubc.ca
M:6/8
L:1/8
%Q:110
K:G
(d/c/)|BAB GAB|cBc d2 g|cAA BGG|cAA A2 (d/c/)|
BAB GAB|cBc d2 g|fdd c2 A|BGG G2||
(B/A/)|GBd gfg|agf g2 e|ddc BAB|cAA A2 (d/c/)|
BAB GAB|cBc d2 g|fdd c2A|BGG G2||


